public/svg/wallet-icons/walletConnect.svg

<svg fill="none" height="28" viewBox="0 0 28 28" width="28" xmlns="http://www.w3.org/2000/svg"><path d="m0 0h28v28h-28z" fill="#3b99fc"/><path d="m8.38969 10.3739c3.09851-3.09852 8.12211-3.09852 11.22061 0l.3729.3729c.155.1549.155.4061 0 .561l-1.2756 1.2757c-.0775.0774-.2031.0774-.2805 0l-.5132-.5132c-2.1616-2.1616-5.6662-2.1616-7.8278 0l-.54955.5495c-.07746.0775-.20305.0775-.28051 0l-1.27565-1.2756c-.15492-.1549-.15492-.4061 0-.561zm13.85881 2.6381 1.1353 1.1354c.1549.1549.1549.4061 0 .561l-5.1193 5.1193c-.1549.155-.4061.155-.561 0l-3.6333-3.6333c-.0388-.0387-.1016-.0387-.1403 0l-3.6333 3.6333c-.1549.155-.40607.155-.56099.0001-.00001 0-.00001-.0001-.00001-.0001l-5.11941-5.1194c-.15492-.1549-.15492-.4061 0-.561l1.13533-1.1353c.15493-.155.40611-.155.56103 0l3.6334 3.6334c.03873.0387.10155.0387.14025 0l3.6332-3.6334c.1549-.155.4061-.155.5611 0l3.6334 3.6334c.0387.0387.1015.0387.1402 0l3.6333-3.6334c.155-.1549.4062-.1549.5611 0z" fill="#fff"/></svg>

<svg width="28" height="28" viewBox="0 0 28 28" fill="none" xmlns="http://www.w3.org/2000/svg">
<rect width="28" height="28" fill="#3B99FC"/>
<path d="M8.38969 10.3739C11.4882 7.27538 16.5118 7.27538 19.6103 10.3739L19.9832 10.7468C20.1382 10.9017 20.1382 11.1529 19.9832 11.3078L18.7076 12.5835C18.6301 12.6609 18.5045 12.6609 18.4271 12.5835L17.9139 12.0703C15.7523 9.9087 12.2477 9.9087 10.0861 12.0703L9.53655 12.6198C9.45909 12.6973 9.3335 12.6973 9.25604 12.6198L7.98039 11.3442C7.82547 11.1893 7.82547 10.9381 7.98039 10.7832L8.38969 10.3739ZM22.2485 13.012L23.3838 14.1474C23.5387 14.3023 23.5387 14.5535 23.3838 14.7084L18.2645 19.8277C18.1096 19.9827 17.8584 19.9827 17.7035 19.8277C17.7035 19.8277 17.7035 19.8277 17.7035 19.8277L14.0702 16.1944C14.0314 16.1557 13.9686 16.1557 13.9299 16.1944C13.9299 16.1944 13.9299 16.1944 13.9299 16.1944L10.2966 19.8277C10.1417 19.9827 9.89053 19.9827 9.73561 19.8278C9.7356 19.8278 9.7356 19.8277 9.7356 19.8277L4.61619 14.7083C4.46127 14.5534 4.46127 14.3022 4.61619 14.1473L5.75152 13.012C5.90645 12.857 6.15763 12.857 6.31255 13.012L9.94595 16.6454C9.98468 16.6841 10.0475 16.6841 10.0862 16.6454C10.0862 16.6454 10.0862 16.6454 10.0862 16.6454L13.7194 13.012C13.8743 12.857 14.1255 12.857 14.2805 13.012C14.2805 13.012 14.2805 13.012 14.2805 13.012L17.9139 16.6454C17.9526 16.6841 18.0154 16.6841 18.0541 16.6454L21.6874 13.012C21.8424 12.8571 22.0936 12.8571 22.2485 13.012Z" fill="white"/>
</svg>
